packages/assets/files/nfk/colors/images/background-illustration-dark.svg

<svg xmlns="http://www.w3.org/2000/svg" viewBox="0 0 6388 4087" style="enable-background:new 0 0 6388 4087" xml:space="preserve">
  <style>.st3{fill:#fff}.st4{fill:#e3f2f7}.st5{fill:#e6f1f4}.st6{fill:#030b0f}.st7{fill:#000f0f}.st8{fill:#0085a9}.st9{fill:#00242d}.st10,.st9{clip-path:url(#SVGID_00000019637084859796277590000009983440645654097595_)}.st11{fill:#ff989b}.st12,.st13{display:none;fill:#00ac79}.st13{fill:#00242d}.st14{fill:#1c273f}.st15{fill:#2a3756}.st16{fill:#db807d}.st17{fill:#ffbb46}.st18{opacity:.2;fill:#00242d}.st19{opacity:.7}.st20{opacity:.32;fill:#fff}.st21{fill:#ff282e}.st22{fill:#00242d}.st22,.st23{clip-path:url(#SVGID_00000119833039003113506800000002682544675818530711_)}.st24{fill:#ffcbcd}.st25{fill:#ffb2b4}.st26{fill:#ff7e81}.st27{display:none;fill:#ffbb46}.st28{fill:#8e9093}.st29{opacity:.2;fill:#231f20}.st29,.st30{display:none}.st31{display:inline;fill:#006275}.st32{fill:#3a3a3a}.st32,.st33{display:inline}.st34,.st35{fill:#ffd690}.st35,.st36,.st37{display:inline}.st36{opacity:.57;fill:#cecccc}.st37{fill:#2a3756}.st38{fill:#4a940d}.st39{fill:#49890d}.st40{display:none;fill:#e3f2f7}.st41{fill:#f0f0f0}.st42{fill:#dce4e6}.st43{fill:#020d10}.st44{fill:#09171d}.st45{fill:#00242d}.st45,.st46{clip-path:url(#SVGID_00000165937135850675484260000015459748536447797949_)}.st47{fill:#00242d}.st47,.st48{clip-path:url(#SVGID_00000146482394633932201950000014515620874951632279_)}.st49{fill:#00242d}.st49,.st50{clip-path:url(#SVGID_00000044156854941919152380000016971971201028132283_)}.st51{fill:#00242d}.st51,.st52{clip-path:url(#SVGID_00000102534913700958412120000008849373528454883243_)}</style>
  <g id="Bakgrunner">
    <path style="fill:#00242d" d="M0 0h6388v4087H0z"/>
    <g style="opacity:.2">
      <path d="M6389 4087V1926.86c-507.52 0-779.75 174.92-998.5 315.46-178.64 114.77-307.69 197.69-598.81 197.69-291.12 0-420.17-82.92-598.81-197.69-218.73-140.54-490.95-315.46-998.48-315.46-507.5 0-779.72 174.92-998.45 315.46-178.61 114.77-307.67 197.69-598.77 197.69-291.08 0-420.14-82.92-598.74-197.68C779.71 2101.78 507.5 1926.86 0 1926.86V4087h6389z" style="fill:#006275"/>
    </g>
  </g>
</svg>

<svg width="6388" height="4087" viewBox="0 0 6388 4087" fill="none" xmlns="http://www.w3.org/2000/svg">
  <g clip-path="url(#clip0_4_39)">
    <path d="M0 0H6388V4087H0V0Z" fill="#00242D"/>
    <g opacity="0.2">
      <path opacity="0.2" d="M6389 4087V1926.86C5881.48 1926.86 5609.25 2101.78 5390.5 2242.32C5211.86 2357.09 5082.81 2440.01 4791.69 2440.01C4500.57 2440.01 4371.52 2357.09 4192.88 2242.32C3974.15 2101.78 3701.93 1926.86 3194.4 1926.86C2686.9 1926.86 2414.68 2101.78 2195.95 2242.32C2017.34 2357.09 1888.28 2440.01 1597.18 2440.01C1306.1 2440.01 1177.04 2357.09 998.44 2242.33C779.71 2101.78 507.5 1926.86 0 1926.86V4087H6389Z" fill="#006275"/>
    </g>
  </g>
  <defs>
    <clipPath id="clip0_4_39">
      <rect width="6388" height="4087" fill="white"/>
    </clipPath>
  </defs>
</svg>
